X: 1
T: Miss Condie's Reel
C: D.McKercher
R: reel
B: RSCDS 17-7(II)
Z: 1997 by John Chambers <jc:trillian.mit.edu>
M: 2/2
L: 1/8
K: G
B \
| "G"G2B,D "Em"EFGB | "D7"AD"(G)"BD "(D7)"cDBD | "G"GDB,D "Em"EFGB | "D7"ADFA "G"G2GB |
| "G"G2B,D "Em"EFGB | "D7"AD"(G)"BD "(D7)"cD"(G)"Bd | "C"ecc2 "G"dBGB | "D7"ADFA "G"G2G ||
|| B \
| "G"d2dB "C"g2ge | "G"dBgB dBBg | "Em"gbge "D"afdf | "A7"eA^cA "D"d2dg |
| "D"fadf "G"BcdB | "C"ecc2 "G"dBGB | G2B,D "Em"EFGB | "D7"ADFA "G"G2G |]
